X:20
T:Ikaalisten Rantatie (Ikaalinen's Lakeshore Path)
M:3/4
L:1/4
Q:1/4=150
R:waltz
K:Am
z |: "Am" E3 | c>BA/2^G/2 | "E7" B2 c | "Am" A2 "A7" G |
"Dm" F3 | D>EF/2A/2 | "Am" (E3 | E2) E | !
"Dm" D>ED/2^C/2 | D2 ^C | "Am" =C>EA/2B/2 | c2 c |
"B7" B ^F ^G | (3A/2B/2A/2 ^G A | "E7" ([B3^G3] | [B2^G2]) z | !
"Am" E3 | c>BA/2^G/2 | "E7" B2 c | "Am" A2 "A7" G |
"Dm" F3 | D>EF/2G/2 | "Am" (E3 | E2) E | !
"Dm" D>EF/2A/2 | "E7" [dE] [c^F] [B^G] | "Am" A>Bc/2B/2 | A c e |
"Dm" d c B | "E7" ^G2 B | "Am" (A3 | A) A | !
|: ^G | "G7" G3 | f>dB/2G/2 | "C" c2 [dB] | [e3c3] |
"Dm" d3 | "E7" B c d | "Am" c2 B | A2 "A7" G | !
"Dm" F3 | D E F | "Am" E A B | c B A |
"Dm" d3 |[1 c2 d | "E7" (B3 | B) A :|[2 "E7" B2 c | "Am" (A3 | A) z ||

